!!!!SEGMENT: pl-kc--40102-iii-1-saf--001-004_zielenski-mikolaj--offertoria-totius-anni-in-festo-s-stephani-protomartyris-elegeruni-apostoli.krn
!!!cenid: 16xx:1483
!!!COM: Zieleński, Mikołaj
!!!COM-rismid: pe30013481
!!!CDT:
!!!CNT: Polish
!!!GTL: Offertoria totius anni
!!!OTL: In festo S. Stephani Protomartyris/Elegeruni Apostoli
!!!OMV: 004
!!!PDT: 1611
!!!AGN:
!!!SMS-siglum: PL-Kc
!!!SMS-shelfmark: 40102 III/1 Saf.
!!!SMS-shelfwork: 001-004 G
!!!SMS-variant:
!!!SMS-altvar:
!!!NIFC-rismid: 990069886
!!!URL-scan: https://cyfrowe.mnk.pl/dlibra/publication/24235/edition/23926/content?ref=desc
!!!ONB-nifc: UWAGA: str. 7. Uwaga: W xml metrum 2/1 do źródłowego C| i odpowiednio 3/1 do 3/2
!!!key: d:dor
**kern	**kern	**kern	**kern
*part4	*part3	*part2	*part1
*staff4	*staff3	*staff2	*staff1
*group1	*group1	*group1	*group1
*I""Organo	*I""Organo	*I""Organo	*I""Organo
*I''org	*I''org	*I''org	*I''org
*Iorgan	*Iorgan	*Iorgan	*Iorgan
*ICklav	*ICklav	*ICklav	*ICklav
*clefF5	*clefC3	*clefC4	*clefG2
*k[]	*k[]	*k[]	*k[]
*d:	*d:	*d:	*d:
*M2/1	*M2/1	*M2/1	*M2/1
*met(C|)	*met(C|)	*met(C|)	*met(C|)
=1	=1	=1	=1
!	!	!LO:TX:a:t=Elegeruni Apoſtoli.	!LO:TX:a:t=In feſto S. Stephani Protomartyris. A 8.
00r	00r	1r	1dd
.	.	1d	2dd\
.	.	.	2.ff\
=2-	=2-	=2-	=2-
.	.	2d\	.
.	.	.	8ee\
.	.	.	8dd\
.	.	2.f\	4cc\
.	.	.	4b/
.	.	.	4cc\
.	.	8e\	4dd\
.	.	8d\	.
.	.	2c\	4ee\
.	.	.	4ff\
=3	=3	=3	=3
00r	00r	2c\	2ee\
.	.	2A/	2ee\
.	.	2d\	2dd\
.	.	2B-X\	2dd\
=4-	=4-	=4-	=4-
.	.	1.A	2cc\
.	.	.	4cc\
.	.	.	4dd\
.	.	.	4ee\
.	.	.	4ff\
.	.	[y2E/	[y2gg\
=5	=5	=5	=5
!	!	!LO:N:xstem:cue	!LO:N:xstem:cue
00r	00r	4E/]	4gg\]
.	.	4F/	8ff\
.	.	.	8ee\
.	.	2.G/	4dd\
.	.	.	4cc\
.	.	.	4dd\
.	.	8F/	4ee\
.	.	8E/	.
.	.	4D/	2ff\
.	.	4E/	.
=6-	=6-	=6-	=6-
.	.	2F/	2ff\
.	.	2C/	2.ee\
.	.	2G/	.
.	.	.	4dd\
.	.	2D/	[y2dd\
=7	=7	=7	=7
!	!	!	!LO:N:xstem:cue
0r	1r	1A	4dd\]
.	.	.	8cc#X\
.	.	.	8b\
.	.	.	2cc#\
.	1d	0D	0dd
=8-	=8-	=8-	=8-
1D	2d\	.	.
.	2.f\	.	.
2D\	.	1r	1r
.	8e\	.	.
.	8d\	.	.
2F\	4c/	.	.
.	4B/	.	.
*custos:F	*custos:c	*custos:F	*custos:cc
!!LO:LB:g=original
=9	=9	=9	=9
4F\	4c/	00r	00r
8E\	4d\	.	.
8D\	.	.	.
2C\	4e\	.	.
.	4f\	.	.
2C\	2e\	.	.
2AA/	2e\	.	.
=10-	=10-	=10-	=10-
2D\	2d\	.	.
2BB-X/	2d\	.	.
1AA	2c/	.	.
.	[y2e\	.	.
=11	=11	=11	=11
!	!LO:N:xstem:cue	!	!
2.C\	4e\]	00r	00r
.	4f\	.	.
.	2.g\	.	.
8BB/	.	.	.
8AA/	.	.	.
4GG/	.	.	.
4AA/	8f\	.	.
.	8e\	.	.
4BB/	4d\	.	.
4C\	4e\	.	.
=12-	=12-	=12-	=12-
2D\	2f\	.	.
2DD/	4e\	.	.
.	4d\	.	.
2.AA/	2e\	.	.
.	[y2a\	.	.
4GG/	.	.	.
=13	=13	=13	=13
!	!LO:N:xstem:cue	!	!
2FF/	4a\]	0r	0r
.	4g\	.	.
2FF/	2.f\	.	.
1C	.	.	.
.	8e\	.	.
.	8d\	.	.
.	2e\	.	.
=14-	=14-	=14-	=14-
1FF	1f	2r	2r
.	.	2F/	2cc\
1r	1r	2D/	2dd\
.	.	2A/	2ee\
=15	=15	=15	=15
0r	0r	2.D/	2.ff\
.	.	2G/	2dd\
.	.	4.C/	4.ee\
.	.	8C/	8ee\
.	.	4D/	4dd\
=16-	=16-	=16-	=16-
1r	1r	1E	4cc\
.	.	.	8b/
.	.	.	8a/
.	.	.	2b/
2r	2r	2.A/	2cc#X\
2AA/	2A/	.	2ee\
.	.	4A/	.
=17	=17	=17	=17
2DD/	2A/	2d\	2ff#X\
2GG/	2B/	2G/	2gg\
2.CC/	4G/	2.c\	2.ee\
.	2g\	.	.
2FF/	2a\	2A/	2ffny\
=18-	=18-	=18-	=18-
4.GG/	2d\	4.G/	4.dd\
8GG/	.	8G/	8dd\
4EE/	4e\	4G/	2gg\
1AA	1e	1A	.
.	.	.	4ff\
.	.	.	2ee\
=19	=19	=19	=19
0DD	0a	1F#X	1ff#X
.	.	2r	2r
.	.	2.D/	2.ff#\
=20-	=20-	=20-	=20-
0r	0r	.	.
.	.	4.A/	4.ee\
.	.	8A/	8ee\
.	.	4B-X\	4dd\
.	.	2Fny/	2cc\
.	.	4F/	4cc\
.	.	4D/	4dd\
=21	=21	=21	=21
1r	1r	1G	1b-X
2r	2r	1D	1a
2.DD/	2.d\	.	.
=22-	=22-	=22-	=22-
.	.	0r	0r
4.AA/	4.e\	.	.
8AA/	8e\	.	.
4FF/	4f\	.	.
2GG/	4.d\	.	.
.	16c\	.	.
.	16d\	.	.
4CC/	4e\	.	.
4DD/	4d\	.	.
=23	=23	=23	=23
1AA	4d\	1r	1r
.	8c#X/	.	.
.	8B/	.	.
.	2c#/	.	.
1DD	1d	2r	2r
.	.	2D/	2a/
=24-	=24-	=24-	=24-
1r	1r	1B-X	1dd
2r	2r	2A/	2cc#X\
2AA/	2e\	2E/	2ee\
=25	=25	=25	=25
1EE	1e	1E	1ee
2AA/	2e\	1E	1ee
1AA/	1a\	.	.
=26-	=26-	=26-	=26-
.	.	0r	0r
2EE/	2g\	.	.
2.FF/	(1f	.	.
4GG/	.	.	.
=27	=27	=27	=27
1AA	1e)	1r	1r
1DD	1d	2r	2r
.	.	1d\	1dd\
=28-	=28-	=28-	=28-
0r	0r	.	.
.	.	2c\	2ee\
.	.	2B-X\	4ff\
.	.	.	4dd\
.	.	4A/	[y2gg\
.	.	4G/	.
=29	=29	=29	=29
!	!	!	!LO:N:xstem:cue
00r	00r	1d	4gg\]
.	.	.	8ff#X\
.	.	.	8ee\
.	.	.	2ff#\
.	.	2G/	2gg\
.	.	1c\	1ee\
=30-	=30-	=30-	=30-
.	.	2c\	2ee\
.	.	1F	1ffny
=31	=31	=31	=31
00r	00r	1G	1dd\
.	.	2C/	2ee\
.	.	2.F/	2.cc\
=32-	=32-	=32-	=32-
.	.	4F/	4cc\
.	.	2F/	2cc\
.	.	1D	1dd
*custos:AA	*custos:a	*custos:D	*custos:ff
!!LO:LB:g=original
=33	=33	=33	=33
0r	0r	2D/	2ff\
.	.	2C#X/	1ee
.	.	0D	.
!	!	!	!LO:SIC:v:s=4ddn\
.	.	.	4dd#X\
!	!	!	!LO:SIC:v:s=4cc#\
.	.	.	4cc\
=34-	=34-	=34-	=34-
1r	1r	.	1ddny
2r	2r	[<1A	[<1ee
[<2AA/	[<2a\	.	.
=35	=35	=35	=35
2AA/]	2a\]	1A]	1ee]
2AA/	2e\	.	.
1DD	1f#X	2r	2r
.	.	1D/	1dd\
=36-	=36-	=36-	=36-
1r	1r	.	.
.	.	2D/	2dd\
2r	2r	1G	1dd
[<2GG/	[<2g\	.	.
=37	=37	=37	=37
2GG/]	2g\]	2r	2r
2GG/	2g\	1G	1gg
1GG	1g	.	.
.	.	2G/	2gg\
=38-	=38-	=38-	=38-
1GG	1d	1G	1gg
1CC	1e	1G	1ee
=39	=39	=39	=39
1.FF	1.c	2F/	2ff\
.	.	1F	1cc
2FF/	2A/	2F/	2cc\
=40-	=40-	=40-	=40-
2DD/	2A/	2F/	2dd\
2.DD/	2.A/	2.D/	2.ff\
4DD/	4A/	4D/	4ff\
2AA/	2A/	2C#X/	[y2ee\
=41	=41	=41	=41
*	*	*lig	*
!	!	!	!LO:N:xstem:cue
2FF/	2.f\	1.D	4ee\]
.	.	.	4dd\
4EE/	.	.	2.dd\
4DD/	4g\	.	.
1AA	4a\	.	.
.	4e\	.	8cc#X\
.	.	.	8b\
.	2a\	2E/	2cc#\
*	*	*Xlig	*
=42-	=42-	=42-	=42-
1DD	1a	2D/	2dd\
.	.	2D/	2ff\
1r	1r	4.A/	4.ee\
.	.	8F/	8ff\
.	.	4G/	4dd\
.	.	4E/	4ee\
=43	=43	=43	=43
0r	0r	4.F/	4.cc\
.	.	8D/	8dd\
.	.	4A/	4ee\
.	.	4F/	4ff\
.	.	2B-X\	2ff\
.	.	2G/	2gg\
=44-	=44-	=44-	=44-
2r	2r	1F	1aa
2FF/	2f\	.	.
4.C\	4.e\	1r	1r
8AA/	8f\	.	.
4BB-X/	4d\	.	.
4GG/	4e\	.	.
=45	=45	=45	=45
4.AA/	4.c/	0r	0r
8FF/	8d\	.	.
4C\	4e\	.	.
4AA/	4a\	.	.
2BB-X/	4g\	.	.
.	4f\	.	.
2FF/	2.f\	.	.
=46-	=46-	=46-	=46-
1C	.	1r	1r
.	8e\	.	.
.	8d\	.	.
.	2e\	.	.
1FF	1f	2r	2r
.	.	2F/	2ff\
=47	=47	=47	=47
0r	0r	4.c\	4.ee\
.	.	8A/	8ff\
.	.	4B-X\	4dd\
.	.	4G/	4ee\
.	.	4.A/	4.cc#X\
.	.	8F/	8dd\
.	.	4G/	4b/
.	.	4E/	2ee\
=48-	=48-	=48-	=48-
1r	1r	4.F/	.
.	.	.	2dd\
.	.	8G/	.
.	.	4A/	.
.	.	4A/	4cc#X\
2r	2r	2.D/	2.dd\
2DD/	2d\	.	.
.	.	4D/	4aa\
=49	=49	=49	=49
4.AA/	4.A/	4.E/	4.aa\
8AA/	8A/	8E/	8ee\
4DD/	4d\	4D/	4ff#X\
4GG/	4d\	4D/	4gg\
4.CC/	4.e\	4.C/	4.gg\
8CC/	8e\	8C/	8ee\
4FF/	4c/	4C/	4ffny\
4FF/	4f\	4C/	4cc\
=50-	=50-	=50-	=50-
4.CC/	4.e\	4.C/	4.ee\
8CC/	8e\	8C/	8ee\
4GG/	4c/	4D/	4dd\
4GG/	4d\	4D/	4gg\
(<1DD	2.d\	2.D/	2.ff\
.	4d\	4D/	4ff\
=51	=51	=51	=51
2.AA/)	2A/	1E	2ee\
.	1c	.	2.aa\
4GG/	.	.	.
2.FF/	.	1.F	.
.	.	.	4gg\
.	2c/	.	2.ff\
4EE/	.	.	.
=52-	=52-	=52-	=52-
1DD	2.f\	.	.
.	.	.	4ee\
.	.	2F/	1dd
.	4g\	.	.
[<1AA	1a	[<1E	.
.	.	.	4cc#X\
.	.	.	4b/
=53	=53	=53	=53
1AA]	1A	1E]	2cc#X\
.	.	.	2cc#\
2DD/	1d	1D	2dd\
2DD/	.	.	4dd\
.	.	.	4ee\
=54-	=54-	=54-	=54-
2.D\	1.d	1.D	4ff\
.	.	.	4gg\
.	.	.	2aa\
4C\	.	.	.
2.BB-X/	.	.	[<1dd
.	2d\	2D/	.
4AA/	.	.	.
=55	=55	=55	=55
1.GG	0d	0D	2dd]
.	.	.	2.gg\
.	.	.	4dd\
2GG/	.	.	1gg\
=56-	=56-	=56-	=56-
0DDl	0dl	0Dl	.
.	.	.	4ff#X\
.	.	.	4ee\
.	.	.	1ff#l
==	==	==	==
*-	*-	*-	*-
!!!system-decoration: *
!!!RDF**kern: > = above
!!!RDF**kern: < = below
!!!RDF**kern: l = terminal long
!!!AIN: 4 organ
!!!ENC: Filip Voros
!!!END: 2021-12-09
!!!ENC: Andrzej Kubiczek
!!!END: 2021-12-18
